X: 10
T: If We Hadn't Any Women In The World
R: barndance
M: 4/4
L: 1/8
K: Amaj
|: c>d |e>fe>c A2 c>A | F2 A>F E2 A>B | c>e^d>e f>ec>A | B6 c>d |
e>fe>c A>B (3cBA | F>BA>F (3EFE A>B | c>ec>A B>^AB>G | A4- A2 :|
|: (3cde |f2- f>g a3 g | f2 e2 e2 A>B | c>e^d>e f>ec>A | B4- B2 c>d |
e2 e>c A2 c>A | F2 =F2 E2 A>B | c2 (3cde B2 (3BAG | A4- A>A :|


Tune 1376	Setting 14734

